img/three-stars.svg

<svg width="68" height="17" fill="none" xmlns="http://www.w3.org/2000/svg"><path d="m9 0 2.1 6.5H18l-5.6 4 2.2 6.5L9 13l-5.6 4 2.2-6.5-5.6-4h6.9L9 0ZM34 0l2.1 6.5H43l-5.6 4 2.2 6.5-5.6-4-5.6 4 2.2-6.5-5.6-4h6.9L34 0ZM59 0l2.1 6.5H68l-5.6 4 2.2 6.5-5.6-4-5.6 4 2.2-6.5-5.6-4h6.9L59 0Z" fill="#83B3D3"/></svg>

<svg width="68" height="17" viewBox="0 0 68 17" fill="none" xmlns="http://www.w3.org/2000/svg">
<path d="M9 0L11.1 6.5H18L12.4 10.5L14.6 17L9 13L3.4 17L5.6 10.5L0 6.5H6.9L9 0Z" fill="#83B3D3"/>
<path d="M34 0L36.1 6.5H43L37.4 10.5L39.6 17L34 13L28.4 17L30.6 10.5L25 6.5H31.9L34 0Z" fill="#83B3D3"/>
<path d="M59 0L61.1 6.5H68L62.4 10.5L64.6 17L59 13L53.4 17L55.6 10.5L50 6.5H56.9L59 0Z" fill="#83B3D3"/>
</svg>
